X:9
T:Peeral's Fublvoy No nwor Mc I Polka do shegher fow the s'rpilila Also playef. 2\'i Toomer
H:


*****************************


15300 4 0.87962174 

<startothelliet ctouthy Glecterd
fst fishincest por tune the nort to the mean et uiste, The
0:Toum Hearst


*****************************


15400 4 0.97925276 

<starht: ole dourd the messs in As
Z:id:hn-polka-99
M:2/4
L:1/8
K:Eb
EF EF|E>C EE|ce ce|ag e>c|BA FD|EF A


*****************************


15500 4 1.414393 

<starathppoleton
L: =DG FG |AG FE ~E2 | ~D3 dAF | AG GE ED |:
M:C GB BG | EA BA AB | A2 Ac/c/ BA | d2 d2 


*****************************


15600 4 1.0393349 

<start>
